remix/Map/charging-pile-2-line.svg

<svg viewBox="0 0 24 24" fill="currentColor" xmlns="http://www.w3.org/2000/svg"><path d="M20 11H19V7H20V4H22V7H23V11H22V18C22 19.6569 20.6569 21 19 21C17.3431 21 16 19.6569 16 18V14H14V19H15V21H2V19H3V4C3 3.44772 3.44772 3 4 3H13C13.5523 3 14 3.44772 14 4V12H16C17.1046 12 18 12.8954 18 14V18C18 18.5523 18.4477 19 19 19C19.5523 19 20 18.5523 20 18V11ZM12 19V5H5V19H12ZM9 11H12L8 17V13H5L9 7V11Z"/></svg>

<svg viewBox="0 0 24 24" xmlns="http://www.w3.org/2000/svg"><path fill="none" d="M0 0h24v24H0Z"/><path d="M20 11h-1V7h1V4h2v3h1v4h-1v7 0c0 1.65-1.35 3-3 3 -1.66 0-3-1.35-3-3v-4h-2v5h1v2H2v-2h1V4v0c0-.56.44-1 1-1h9v0c.55 0 1 .44 1 1v8h2v0c1.1 0 2 .89 2 2v4 0c0 .55.44 1 1 1 .55 0 1-.45 1-1v-7Zm-8 8V5H5v14h7Zm-3-8h3l-4 6v-4H5l4-6v4Z"/></svg>
